img/product-flower-2.svg

<svg width="141" height="141" viewBox="0 0 141 141" fill="none" xmlns="http://www.w3.org/2000/svg">
<path d="M59.5093 0H53.5583L50.3124 1.62298L47.6074 4.86894L45.4434 10.8199V23.2627L47.0664 30.2956L50.8534 40.5745L55.1813 48.6894L46.5254 40.0335L39.4925 34.0826L31.9186 29.7546L24.3447 27.0497H15.6888L12.9838 28.1316L10.2789 30.2956L8.1149 34.0826V39.4925L9.73788 43.8205L14.0658 49.7714L18.3938 53.5583L24.3447 57.3453L33.0006 61.6732L44.3614 65.4602H37.8695L24.3447 66.0012L15.1478 68.1651L9.19689 70.8701L4.32795 74.1161L2.16397 76.821L0 80.608V86.5589L1.62298 89.8049L5.40993 92.5098L10.2789 94.6738H23.8037L28.1316 93.5918L37.8695 90.3459L48.1484 85.4769L38.9515 94.6738L34.0826 100.625L30.2956 107.117L27.5907 113.609L26.5087 119.56L27.0497 124.428L28.1316 127.133L30.8366 130.379L34.0826 132.002H39.4925L42.7385 130.92L48.6894 127.133L52.4763 122.805L56.8043 116.855L61.6732 106.576L66.5422 118.478L67.0832 120.912L67.6242 123.346L71.4111 132.002L75.7391 137.412L80.608 140.117H86.5589L87.6409 139.576L90.8869 136.871L93.0508 133.625L94.6738 128.215V117.937L93.5918 111.986L90.3459 102.248L85.4769 91.9689L91.9689 98.4608L99.0018 104.953L107.658 110.363L115.773 113.068H124.428L127.133 111.986L130.379 109.281L132.002 106.035V100.625L129.838 95.2148L126.051 90.8869L120.641 86.0179L113.068 81.149L105.494 77.903L95.7558 74.6571H110.363L115.232 74.1161L124.969 71.9521L130.92 69.2471L136.871 64.9192L140.117 59.5093V53.5583L139.035 51.3944L134.707 47.6074L128.756 45.4434H117.396L114.15 45.9844L106.576 48.1484L96.2968 52.4763L88.7229 56.8043L92.5098 54.0993L97.9198 48.6894L102.789 43.2795L107.117 37.8695L110.904 30.8366L113.068 23.8037V15.6888L111.986 12.9838L109.822 10.2789L106.035 8.1149H100.625L96.2968 9.73788L90.8869 13.5248L86.5589 18.3938L82.772 24.3447L78.444 33.0006L74.6571 44.3614V30.2956L73.5751 21.6397L71.4111 14.0658L68.7061 8.1149L64.9192 3.24596L59.5093 0Z" fill="#E7637A"/>
<path d="M61.3 55.7615L66.8455 53.6027L72.672 53.6566L78.0789 55.6156L82.1697 58.6674L84.5517 61.8038L86.3181 66.3411L86.7682 71.9713L84.1936 78.779L81.9538 81.9731L78.8173 84.3552L73.2718 86.514L66.9412 86.6563L62.2347 85.0053L58.1439 81.9534L55.7618 78.817L53.603 73.2714L53.3491 68.1454L55.1117 62.2344L58.6677 57.9473L61.3 55.7615Z" fill="#EFB74A"/>
</svg>

<svg width="141" height="141" fill="none" xmlns="http://www.w3.org/2000/svg"><path d="M59.51 0h-5.952l-3.246 1.623-2.705 3.246-2.164 5.95v12.444l1.623 7.033 3.787 10.279 4.328 8.114-8.656-8.656-7.032-5.95-7.574-4.328-7.574-2.705h-8.656l-2.705 1.082-2.705 2.164-2.164 3.787v5.41l1.623 4.328 4.328 5.95 4.328 3.787 5.95 3.787 8.657 4.328 11.36 3.787H37.87l-13.525.541-9.197 2.164-5.951 2.705-4.869 3.246-2.164 2.705L0 80.608v5.95l1.623 3.247L5.41 92.51l4.869 2.164h13.525l4.328-1.082 9.738-3.246 10.278-4.87-9.197 9.198-4.868 5.951-3.787 6.492-2.705 6.492-1.082 5.951.54 4.868 1.083 2.705 2.705 3.246 3.246 1.623h5.41l3.245-1.082 5.951-3.787 3.787-4.328 4.328-5.95 4.87-10.279 4.868 11.902.541 2.434.541 2.434 3.787 8.656 4.328 5.41 4.869 2.705h5.95l1.083-.541 3.246-2.705 2.164-3.246 1.623-5.41v-10.278l-1.082-5.951-3.246-9.738-4.87-10.28 6.493 6.493 7.033 6.492 8.656 5.41 8.115 2.705h8.655l2.705-1.082 3.246-2.705 1.623-3.246v-5.41l-2.164-5.41-3.787-4.328-5.41-4.87-7.573-4.868-7.574-3.246-9.738-3.246h14.607l4.869-.54 9.737-2.165 5.951-2.705 5.951-4.328 3.246-5.41v-5.95l-1.082-2.165-4.328-3.787-5.951-2.164h-11.36l-3.246.541-7.574 2.164-10.28 4.328-7.573 4.328L92.51 54.1l5.41-5.41 4.869-5.41 4.328-5.41 3.787-7.032 2.164-7.033V15.69l-1.082-2.705-2.164-2.705-3.787-2.164h-5.41l-4.328 1.623-5.41 3.787-4.328 4.869-3.787 5.95-4.328 8.657-3.787 11.36V30.296l-1.082-8.656-2.164-7.574-2.705-5.951-3.787-4.869L59.51 0z" fill="#E7637A"/><path d="M61.3 55.761l5.546-2.158 5.826.054 5.407 1.959 4.09 3.051 2.383 3.137 1.766 4.537.45 5.63-2.574 6.808-2.24 3.194-3.137 2.382-5.545 2.159-6.33.142-4.707-1.65-4.091-3.053-2.382-3.136-2.159-5.546-.254-5.126 1.763-5.91 3.556-4.288 2.632-2.186z" fill="#EFB74A"/></svg>
